X: 18637
T: I Wonder What's Keeping My True Love Tonight
R: waltz
M: 3/4
K: Cmajor
A,C|:"G"d3 ed e|"G7"g2 G2 G2|"F"A2 C2 d2|"C"C4 eg|
"F"a3 b c'b|"Em"a2 g2 ga|"C"E3 d Cd|"Am"e4 eg|
"F"a3 b c'b|"Em"a2 G2 ga|"C"e3 d Cd|"Am"e4 dc|
"G7"d3 e de|"Em"g2 G2 GG|"F"A2 c2 d2|"C"c6:|

